X:1
T:Rejoice, 66.66.88
T:Rejoice, 66.66.88
T:T. Allen Cleaver, 1908
T:Public Domain Courtesy of the Cyber Hymnal™
C:T. Allen Cleaver, 1908
Z:Public Domain
Z:Courtesy of the Cyber Hymnal™
%%score ( 1 2 ) ( 3 4 )
L:1/8
Q:1/4=110
M:4/4
K:C
V:1 treble 
V:2 treble 
V:3 bass 
V:4 bass 
V:1
 G2 | [Ec]3 [FB] [Gc]2 [Gd]2 | [Ge]6 [EG]2 | [EG]2 [EG]2 [EG]2 [EG]2 | F6 [Fd]2 | %5
 [Fd]3 [FG] [FG]2 [FG]2 | [EG]2 [EA]2 [EB]2 [Ec]2 | d4 [^Fd]4 | [Gd]6 G2 | c2 B2 c2 G2 | %10
 [Gc]2 d2 [Ee]2 [Ac]2 | [Af]3 [Ae] [Ad]2 [Dc]2 | c4 B4 | [Ec]6 |] %14
V:2
 G2 | x8 | x8 | x8 | (_E2 D4) x2 | x8 | x8 | (G2 E2) x4 | x6 G2 | c2 B2 c2 G2 | x2 (GF) x4 | x8 | %12
 (D2 E2) (G2 F2) | x6 |] %14
V:3
 G,2 | [C,C]3 [D,B,] [E,C]2 [G,D]2 | E6 [C,C]2 | [C,C]2 [C,G,]2 [^C,A,]2 [C,A,]2 | %4
 [D,A,]6 [B,,G,]2 | [B,,G,]3 [D,B,] [G,B,]2 [B,D]2 | C2 C2 [B,C]2 [A,C]2 | [D,A,]4 [D,C]4 | %8
 [G,B,]6 G,2 | C2 B,2 C2 G,2 | A,2 B,2 C2 [A,E]2 | [F,D]3 [E,^C] [F,D]2 [^F,A,]2 | G,4 [G,,G,]4 | %13
 [C,G,]6 |] %14
V:4
 G,2 | x8 | (C2 C,4) x2 | x8 | x8 | x8 | C2 C2 x4 | x8 | x6 G,2 | C2 B,2 C2 G,2 | A,2 B,2 C2 x2 | %11
 x8 | G,4 x4 | x6 |] %14

